packages/templates/gallery/debug-crop-marks-89.svg

<svg class="typst-doc" viewBox="0 0 270 210" width="270pt" height="210pt" xmlns="http://www.w3.org/2000/svg" xmlns:xlink="http://www.w3.org/1999/xlink" xmlns:h5="http://www.w3.org/1999/xhtml">
    <path class="typst-shape" fill="#ffffff" fill-rule="nonzero" d="M 0 0v 210 h 270 v -210 Z "/>
    <g>
        <g class="typst-group" transform="matrix(1 0 0 1 97.5 17.5)">
            <g>
                <g class="typst-group">
                    <g>
                        <path class="typst-shape" fill="#eeeeee" fill-rule="nonzero" transform="matrix(1 0 0 1 16.5 26)" d="M 0 0v 104.5 h 4.5 v -104.5 Z "/>
                        <g class="typst-group" transform="matrix(1 0 0 1 6.150000000000001 26)">
                            <g>
                                <path class="typst-shape" fill="#a23b72" fill-rule="nonzero" stroke="#000000" stroke-width="0.5" stroke-linecap="butt" stroke-linejoin="miter" stroke-miterlimit="4" d="M 0 0m 12.6 0 l 12.6 9 l -12.6 9 l -12.6 -9 Z "/>
                            </g>
                        </g>
                        <a transform="matrix(1 0 0 1 6.150000000000001 26)" href="bead://heaven-col1-active1" xlink:href="bead://heaven-col1-active1">
                            <rect width="25.199999999999996" height="18" fill="transparent" stroke="none"/>
                        </a>
                        <g class="typst-group" transform="matrix(1 0 0 1 6.150000000000001 49)">
                            <g>
                                <path class="typst-shape" fill="#a23b72" fill-rule="nonzero" stroke="#000000" stroke-width="0.5" stroke-linecap="butt" stroke-linejoin="miter" stroke-miterlimit="4" d="M 0 0m 12.6 0 l 12.6 9 l -12.6 9 l -12.6 -9 Z "/>
                            </g>
                        </g>
                        <a transform="matrix(1 0 0 1 6.150000000000001 49)" href="bead://earth-col1-pos0-active1" xlink:href="bead://earth-col1-pos0-active1">
                            <rect width="25.199999999999996" height="18" fill="transparent" stroke="none"/>
                        </a>
                        <g class="typst-group" transform="matrix(1 0 0 1 6.150000000000001 67.75)">
                            <g>
                                <path class="typst-shape" fill="#a23b72" fill-rule="nonzero" stroke="#000000" stroke-width="0.5" stroke-linecap="butt" stroke-linejoin="miter" stroke-miterlimit="4" d="M 0 0m 12.6 0 l 12.6 9 l -12.6 9 l -12.6 -9 Z "/>
                            </g>
                        </g>
                        <a transform="matrix(1 0 0 1 6.150000000000001 67.75)" href="bead://earth-col1-pos1-active1" xlink:href="bead://earth-col1-pos1-active1">
                            <rect width="25.199999999999996" height="18" fill="transparent" stroke="none"/>
                        </a>
                        <g class="typst-group" transform="matrix(1 0 0 1 6.150000000000001 86.5)">
                            <g>
                                <path class="typst-shape" fill="#a23b72" fill-rule="nonzero" stroke="#000000" stroke-width="0.5" stroke-linecap="butt" stroke-linejoin="miter" stroke-miterlimit="4" d="M 0 0m 12.6 0 l 12.6 9 l -12.6 9 l -12.6 -9 Z "/>
                            </g>
                        </g>
                        <a transform="matrix(1 0 0 1 6.150000000000001 86.5)" href="bead://earth-col1-pos2-active1" xlink:href="bead://earth-col1-pos2-active1">
                            <rect width="25.199999999999996" height="18" fill="transparent" stroke="none"/>
                        </a>
                        <g class="typst-group" transform="matrix(1 0 0 1 6.150000000000001 112.5)">
                            <g>
                                <path class="typst-shape" fill="#e6e6e6" fill-rule="nonzero" stroke="#000000" stroke-width="0.5" stroke-linecap="butt" stroke-linejoin="miter" stroke-miterlimit="4" d="M 0 0m 12.6 0 l 12.6 9 l -12.6 9 l -12.6 -9 Z "/>
                            </g>
                        </g>
                        <a transform="matrix(1 0 0 1 6.150000000000001 112.5)" href="bead://earth-col1-pos3-active0" xlink:href="bead://earth-col1-pos3-active0">
                            <rect width="25.199999999999996" height="18" fill="transparent" stroke="none"/>
                        </a>
                        <path class="typst-shape" fill="#eeeeee" fill-rule="nonzero" transform="matrix(1 0 0 1 54 26)" d="M 0 0v 97.25 h 4.5 v -97.25 Z "/>
                        <g class="typst-group" transform="matrix(1 0 0 1 43.65 26)">
                            <g>
                                <path class="typst-shape" fill="#2e86ab" fill-rule="nonzero" stroke="#000000" stroke-width="0.5" stroke-linecap="butt" stroke-linejoin="miter" stroke-miterlimit="4" d="M 0 0m 12.6 0 l 12.6 9 l -12.6 9 l -12.6 -9 Z "/>
                            </g>
                        </g>
                        <a transform="matrix(1 0 0 1 43.65 26)" href="bead://heaven-col0-active1" xlink:href="bead://heaven-col0-active1">
                            <rect width="25.199999999999996" height="18" fill="transparent" stroke="none"/>
                        </a>
                        <g class="typst-group" transform="matrix(1 0 0 1 43.65 49)">
                            <g>
                                <path class="typst-shape" fill="#2e86ab" fill-rule="nonzero" stroke="#000000" stroke-width="0.5" stroke-linecap="butt" stroke-linejoin="miter" stroke-miterlimit="4" d="M 0 0m 12.6 0 l 12.6 9 l -12.6 9 l -12.6 -9 Z "/>
                            </g>
                        </g>
                        <a transform="matrix(1 0 0 1 43.65 49)" href="bead://earth-col0-pos0-active1" xlink:href="bead://earth-col0-pos0-active1">
                            <rect width="25.199999999999996" height="18" fill="transparent" stroke="none"/>
                        </a>
                        <g class="typst-group" transform="matrix(1 0 0 1 43.65 67.75)">
                            <g>
                                <path class="typst-shape" fill="#2e86ab" fill-rule="nonzero" stroke="#000000" stroke-width="0.5" stroke-linecap="butt" stroke-linejoin="miter" stroke-miterlimit="4" d="M 0 0m 12.6 0 l 12.6 9 l -12.6 9 l -12.6 -9 Z "/>
                            </g>
                        </g>
                        <a transform="matrix(1 0 0 1 43.65 67.75)" href="bead://earth-col0-pos1-active1" xlink:href="bead://earth-col0-pos1-active1">
                            <rect width="25.199999999999996" height="18" fill="transparent" stroke="none"/>
                        </a>
                        <g class="typst-group" transform="matrix(1 0 0 1 43.65 86.5)">
                            <g>
                                <path class="typst-shape" fill="#2e86ab" fill-rule="nonzero" stroke="#000000" stroke-width="0.5" stroke-linecap="butt" stroke-linejoin="miter" stroke-miterlimit="4" d="M 0 0m 12.6 0 l 12.6 9 l -12.6 9 l -12.6 -9 Z "/>
                            </g>
                        </g>
                        <a transform="matrix(1 0 0 1 43.65 86.5)" href="bead://earth-col0-pos2-active1" xlink:href="bead://earth-col0-pos2-active1">
                            <rect width="25.199999999999996" height="18" fill="transparent" stroke="none"/>
                        </a>
                        <g class="typst-group" transform="matrix(1 0 0 1 43.65 105.25)">
                            <g>
                                <path class="typst-shape" fill="#2e86ab" fill-rule="nonzero" stroke="#000000" stroke-width="0.5" stroke-linecap="butt" stroke-linejoin="miter" stroke-miterlimit="4" d="M 0 0m 12.6 0 l 12.6 9 l -12.6 9 l -12.6 -9 Z "/>
                            </g>
                        </g>
                        <a transform="matrix(1 0 0 1 43.65 105.25)" href="bead://earth-col0-pos3-active1" xlink:href="bead://earth-col0-pos3-active1">
                            <rect width="25.199999999999996" height="18" fill="transparent" stroke="none"/>
                        </a>
                        <path class="typst-shape" fill="#000000" fill-rule="nonzero" transform="matrix(1 0 0 1 0 45)" d="M 0 0v 3 h 75 v -3 Z "/>
                        <path class="typst-shape" fill="#ff4136" fill-rule="nonzero" stroke="#ff4136" stroke-width="0.5" stroke-linecap="butt" stroke-linejoin="miter" stroke-miterlimit="4" stroke-dashoffset="0" stroke-dasharray="3 3" transform="matrix(1 0 0 1 -25.199999999999996 -17.999999999999993)" d="M 0 0v 204.6 h 0.5 v -204.6 Z "/>
                        <path class="typst-shape" fill="#ff4136" fill-rule="nonzero" stroke="#ff4136" stroke-width="0.5" stroke-linecap="butt" stroke-linejoin="miter" stroke-miterlimit="4" stroke-dashoffset="0" stroke-dasharray="3 3" transform="matrix(1 0 0 1 100.2 -17.999999999999993)" d="M 0 0v 204.6 h 0.5 v -204.6 Z "/>
                        <path class="typst-shape" fill="#ff4136" fill-rule="nonzero" stroke="#ff4136" stroke-width="0.5" stroke-linecap="butt" stroke-linejoin="miter" stroke-miterlimit="4" stroke-dashoffset="0" stroke-dasharray="3 3" transform="matrix(1 0 0 1 -25.199999999999996 -17.999999999999993)" d="M 0 0v 0.5 h 125.4 v -0.5 Z "/>
                        <path class="typst-shape" fill="#ff4136" fill-rule="nonzero" stroke="#ff4136" stroke-width="0.5" stroke-linecap="butt" stroke-linejoin="miter" stroke-miterlimit="4" stroke-dashoffset="0" stroke-dasharray="3 3" transform="matrix(1 0 0 1 -25.199999999999996 186.59999999999997)" d="M 0 0v 0.5 h 125.4 v -0.5 Z "/>
                        <g class="typst-group">
                            <g>
                                <path class="typst-shape" fill="#ff4136" fill-rule="nonzero" transform="matrix(1 0 0 1 -25.199999999999996 45)" d="M 0 0v 0.1 h 0.1 v -0.1 Z "/>
                                <a transform="matrix(1 0 0 1 -25.199999999999996 45)" href="crop-mark://left" xlink:href="crop-mark://left">
                                    <rect width="0.1" height="0.1" fill="transparent" stroke="none"/>
                                </a>
                            </g>
                        </g>
                        <g class="typst-group">
                            <g>
                                <path class="typst-shape" fill="#ff4136" fill-rule="nonzero" transform="matrix(1 0 0 1 100.2 45)" d="M 0 0v 0.1 h 0.1 v -0.1 Z "/>
                                <a transform="matrix(1 0 0 1 100.2 45)" href="crop-mark://right" xlink:href="crop-mark://right">
                                    <rect width="0.1" height="0.1" fill="transparent" stroke="none"/>
                                </a>
                            </g>
                        </g>
                        <g class="typst-group">
                            <g>
                                <path class="typst-shape" fill="#ff4136" fill-rule="nonzero" transform="matrix(1 0 0 1 36 -17.999999999999993)" d="M 0 0v 0.1 h 0.1 v -0.1 Z "/>
                                <a transform="matrix(1 0 0 1 36 -17.999999999999993)" href="crop-mark://top" xlink:href="crop-mark://top">
                                    <rect width="0.1" height="0.1" fill="transparent" stroke="none"/>
                                </a>
                            </g>
                        </g>
                        <g class="typst-group">
                            <g>
                                <path class="typst-shape" fill="#ff4136" fill-rule="nonzero" transform="matrix(1 0 0 1 36 186.59999999999997)" d="M 0 0v 0.1 h 0.1 v -0.1 Z "/>
                                <a transform="matrix(1 0 0 1 36 186.59999999999997)" href="crop-mark://bottom" xlink:href="crop-mark://bottom">
                                    <rect width="0.1" height="0.1" fill="transparent" stroke="none"/>
                                </a>
                            </g>
                        </g>
                    </g>
                </g>
            </g>
        </g>
    </g>
</svg>

<svg class="typst-doc" viewBox="0 0 270 210" width="270pt" height="210pt" xmlns="http://www.w3.org/2000/svg" xmlns:xlink="http://www.w3.org/1999/xlink" xmlns:h5="http://www.w3.org/1999/xhtml">
    <path class="typst-shape" fill="#ffffff" fill-rule="nonzero" d="M 0 0 L 0 210 L 270 210 L 270 0 Z "/>
    <g>
        <g transform="translate(97.5 17.5)">
            <g class="typst-group">
                <g>
                    <g transform="translate(0 0)">
                        <g class="typst-group">
                            <g>
                                <g transform="translate(16.5 26)">
                                    <path class="typst-shape" fill="#eeeeee" fill-rule="nonzero" d="M 0 0 L 0 104.5 L 4.5 104.5 L 4.5 0 Z "/>
                                </g>
                                <g transform="translate(6.150000000000001 26)">
                                    <g class="typst-group">
                                        <g>
                                            <g transform="translate(0 0)">
                                                <path class="typst-shape" fill="#a23b72" fill-rule="nonzero" stroke="#000000" stroke-width="0.5" stroke-linecap="butt" stroke-linejoin="miter" stroke-miterlimit="4" d="M 12.6 0 L 25.2 9 L 12.6 18 L 0 9 Z "/>
                                            </g>
                                        </g>
                                    </g>
                                </g>
                                <g transform="translate(6.150000000000001 49)">
                                    <g class="typst-group">
                                        <g>
                                            <g transform="translate(0 0)">
                                                <path class="typst-shape" fill="#a23b72" fill-rule="nonzero" stroke="#000000" stroke-width="0.5" stroke-linecap="butt" stroke-linejoin="miter" stroke-miterlimit="4" d="M 12.6 0 L 25.2 9 L 12.6 18 L 0 9 Z "/>
                                            </g>
                                        </g>
                                    </g>
                                </g>
                                <g transform="translate(6.150000000000001 67.75)">
                                    <g class="typst-group">
                                        <g>
                                            <g transform="translate(0 0)">
                                                <path class="typst-shape" fill="#a23b72" fill-rule="nonzero" stroke="#000000" stroke-width="0.5" stroke-linecap="butt" stroke-linejoin="miter" stroke-miterlimit="4" d="M 12.6 0 L 25.2 9 L 12.6 18 L 0 9 Z "/>
                                            </g>
                                        </g>
                                    </g>
                                </g>
                                <g transform="translate(6.150000000000001 86.5)">
                                    <g class="typst-group">
                                        <g>
                                            <g transform="translate(0 0)">
                                                <path class="typst-shape" fill="#a23b72" fill-rule="nonzero" stroke="#000000" stroke-width="0.5" stroke-linecap="butt" stroke-linejoin="miter" stroke-miterlimit="4" d="M 12.6 0 L 25.2 9 L 12.6 18 L 0 9 Z "/>
                                            </g>
                                        </g>
                                    </g>
                                </g>
                                <g transform="translate(6.150000000000001 112.5)">
                                    <g class="typst-group">
                                        <g>
                                            <g transform="translate(0 0)">
                                                <path class="typst-shape" fill="#e6e6e6" fill-rule="nonzero" stroke="#000000" stroke-width="0.5" stroke-linecap="butt" stroke-linejoin="miter" stroke-miterlimit="4" d="M 12.6 0 L 25.2 9 L 12.6 18 L 0 9 Z "/>
                                            </g>
                                        </g>
                                    </g>
                                </g>
                                <g transform="translate(54 26)">
                                    <path class="typst-shape" fill="#eeeeee" fill-rule="nonzero" d="M 0 0 L 0 97.25 L 4.5 97.25 L 4.5 0 Z "/>
                                </g>
                                <g transform="translate(43.65 26)">
                                    <g class="typst-group">
                                        <g>
                                            <g transform="translate(0 0)">
                                                <path class="typst-shape" fill="#2e86ab" fill-rule="nonzero" stroke="#000000" stroke-width="0.5" stroke-linecap="butt" stroke-linejoin="miter" stroke-miterlimit="4" d="M 12.6 0 L 25.2 9 L 12.6 18 L 0 9 Z "/>
                                            </g>
                                        </g>
                                    </g>
                                </g>
                                <g transform="translate(43.65 49)">
                                    <g class="typst-group">
                                        <g>
                                            <g transform="translate(0 0)">
                                                <path class="typst-shape" fill="#2e86ab" fill-rule="nonzero" stroke="#000000" stroke-width="0.5" stroke-linecap="butt" stroke-linejoin="miter" stroke-miterlimit="4" d="M 12.6 0 L 25.2 9 L 12.6 18 L 0 9 Z "/>
                                            </g>
                                        </g>
                                    </g>
                                </g>
                                <g transform="translate(43.65 67.75)">
                                    <g class="typst-group">
                                        <g>
                                            <g transform="translate(0 0)">
                                                <path class="typst-shape" fill="#2e86ab" fill-rule="nonzero" stroke="#000000" stroke-width="0.5" stroke-linecap="butt" stroke-linejoin="miter" stroke-miterlimit="4" d="M 12.6 0 L 25.2 9 L 12.6 18 L 0 9 Z "/>
                                            </g>
                                        </g>
                                    </g>
                                </g>
                                <g transform="translate(43.65 86.5)">
                                    <g class="typst-group">
                                        <g>
                                            <g transform="translate(0 0)">
                                                <path class="typst-shape" fill="#2e86ab" fill-rule="nonzero" stroke="#000000" stroke-width="0.5" stroke-linecap="butt" stroke-linejoin="miter" stroke-miterlimit="4" d="M 12.6 0 L 25.2 9 L 12.6 18 L 0 9 Z "/>
                                            </g>
                                        </g>
                                    </g>
                                </g>
                                <g transform="translate(43.65 105.25)">
                                    <g class="typst-group">
                                        <g>
                                            <g transform="translate(0 0)">
                                                <path class="typst-shape" fill="#2e86ab" fill-rule="nonzero" stroke="#000000" stroke-width="0.5" stroke-linecap="butt" stroke-linejoin="miter" stroke-miterlimit="4" d="M 12.6 0 L 25.2 9 L 12.6 18 L 0 9 Z "/>
                                            </g>
                                        </g>
                                    </g>
                                </g>
                                <g transform="translate(0 45)">
                                    <path class="typst-shape" fill="#000000" fill-rule="nonzero" d="M 0 0 L 0 3 L 75 3 L 75 0 Z "/>
                                </g>
                                <g transform="translate(-25.199999999999996 -17.999999999999993)">
                                    <path class="typst-shape" fill="#ff4136" fill-rule="nonzero" stroke="#ff4136" stroke-width="0.5" stroke-linecap="butt" stroke-linejoin="miter" stroke-miterlimit="4" stroke-dashoffset="0" stroke-dasharray="3 3" d="M 0 0 L 0 204.6 L 0.5 204.6 L 0.5 0 Z "/>
                                </g>
                                <g transform="translate(100.2 -17.999999999999993)">
                                    <path class="typst-shape" fill="#ff4136" fill-rule="nonzero" stroke="#ff4136" stroke-width="0.5" stroke-linecap="butt" stroke-linejoin="miter" stroke-miterlimit="4" stroke-dashoffset="0" stroke-dasharray="3 3" d="M 0 0 L 0 204.6 L 0.5 204.6 L 0.5 0 Z "/>
                                </g>
                                <g transform="translate(-25.199999999999996 -17.999999999999993)">
                                    <path class="typst-shape" fill="#ff4136" fill-rule="nonzero" stroke="#ff4136" stroke-width="0.5" stroke-linecap="butt" stroke-linejoin="miter" stroke-miterlimit="4" stroke-dashoffset="0" stroke-dasharray="3 3" d="M 0 0 L 0 0.5 L 125.4 0.5 L 125.4 0 Z "/>
                                </g>
                                <g transform="translate(-25.199999999999996 186.59999999999997)">
                                    <path class="typst-shape" fill="#ff4136" fill-rule="nonzero" stroke="#ff4136" stroke-width="0.5" stroke-linecap="butt" stroke-linejoin="miter" stroke-miterlimit="4" stroke-dashoffset="0" stroke-dasharray="3 3" d="M 0 0 L 0 0.5 L 125.4 0.5 L 125.4 0 Z "/>
                                </g>
                                <g transform="translate(-25.199999999999996 45)">
                                    <path class="typst-shape" fill="#ff4136" fill-rule="nonzero" d="M 0 0 L 0 0.1 L 0.1 0.1 L 0.1 0 Z "/>
                                </g>
                                <g transform="translate(100.2 45)">
                                    <path class="typst-shape" fill="#ff4136" fill-rule="nonzero" d="M 0 0 L 0 0.1 L 0.1 0.1 L 0.1 0 Z "/>
                                </g>
                                <g transform="translate(36 -17.999999999999993)">
                                    <path class="typst-shape" fill="#ff4136" fill-rule="nonzero" d="M 0 0 L 0 0.1 L 0.1 0.1 L 0.1 0 Z "/>
                                </g>
                                <g transform="translate(36 186.59999999999997)">
                                    <path class="typst-shape" fill="#ff4136" fill-rule="nonzero" d="M 0 0 L 0 0.1 L 0.1 0.1 L 0.1 0 Z "/>
                                </g>
                            </g>
                        </g>
                    </g>
                </g>
            </g>
        </g>
    </g>
</svg>
